X: 19749
T: Jenny Pippin
R: reel
M: 4/4
K: Dmajor
BADA dAFA|BADA defd|BADA dAFA|dcdf e3d|
BADA D3A|BADA defd|BDAD dDAD|dBaf e3d||
dfaf bgaf|dfaf g3e|dfaf bgaf|dBAf e3f|
dfaf bgaf|bgaf g2 fg|agfe dBAB|dBaf e2d||

